dist/assets/img/svg/tm-icon-07.svg

<svg width="29" height="33" viewBox="0 0 29 33" fill="none" xmlns="http://www.w3.org/2000/svg">
<g opacity="0.5">
<path d="M22 18.675V11.425V18.675ZM22 11.425V10.7C22 6.59868 22 4.54838 20.745 3.27383C19.4893 2 17.4693 2 13.4286 2H10.5714C6.53071 2 4.51071 2 3.255 3.27383C2 4.54838 2 6.59868 2 10.7V31H22V25.925C22 25.925 27 25.925 27 21.575V15.775C27 11.425 22 11.425 22 11.425Z" stroke="white" stroke-width="3" stroke-linecap="round" stroke-linejoin="round"/>
<path d="M7 16V3" stroke="white" stroke-width="3" stroke-linecap="round" stroke-linejoin="round"/>
<path d="M12 16V3" stroke="white" stroke-width="3" stroke-linecap="round" stroke-linejoin="round"/>
<path d="M17 16V3" stroke="white" stroke-width="3" stroke-linecap="round" stroke-linejoin="round"/>
</g>
</svg>

<svg width="29" height="33" fill="none" xmlns="http://www.w3.org/2000/svg"><path d="M22 18.675v-7.25 7.25zm0-7.25V10.7c0-4.101 0-6.152-1.255-7.426C19.489 2 17.469 2 13.429 2H10.57C6.53 2 4.51 2 3.254 3.274 2 4.548 2 6.599 2 10.7V31h20v-5.075s5 0 5-4.35v-5.8c0-4.35-5-4.35-5-4.35zM7 16V3m5 13V3m5 13V3" opacity=".5" stroke="#fff" stroke-width="3" stroke-linecap="round" stroke-linejoin="round"/></svg>oke-width="3" stroke-linecap="round" stroke-linejoin="round"/>
<path d="M7 16V3" stroke="white" stroke-width="3" stroke-linecap="round" stroke-linejoin="round"/>
<path d="M12 16V3" stroke="white" stroke-width="3" stroke-linecap="round" stroke-linejoin="round"/>
<path d="M17 16V3" stroke="white" stroke-width="3" stroke-linecap="round" stroke-linejoin="round"/>
</g>
</svg>
